svg/fluentui-system-icons/ic_fluent_panel_left_28_regular.svg

<svg width="28" height="28" viewBox="0 0 28 28" fill="none" xmlns="http://www.w3.org/2000/svg">
<path d="M5.75391 4C3.68284 4 2.00391 5.67893 2.00391 7.75V19.2501C2.00391 21.3211 3.68284 23.0001 5.75391 23.0001H22.2505C24.3216 23.0001 26.0005 21.3211 26.0005 19.2501V7.75C26.0005 5.67893 24.3216 4 22.2505 4H5.75391ZM3.50391 7.75C3.50391 6.50736 4.51127 5.5 5.75391 5.5H9L9 21.5001H5.75391C4.51127 21.5001 3.50391 20.4927 3.50391 19.2501V7.75ZM10.5 21.5001L10.5 5.5H22.2505C23.4932 5.5 24.5005 6.50736 24.5005 7.75V19.2501C24.5005 20.4927 23.4932 21.5001 22.2505 21.5001H10.5Z" fill="#212121"/>
</svg>

<svg xmlns="http://www.w3.org/2000/svg" width="28" height="28"><path d="M5.754 4a3.75 3.75 0 0 0-3.75 3.75v11.5A3.75 3.75 0 0 0 5.754 23H22.25A3.75 3.75 0 0 0 26 19.25V7.75A3.75 3.75 0 0 0 22.25 4H5.755Zm-2.25 3.75a2.25 2.25 0 0 1 2.25-2.25H9v16H5.754a2.25 2.25 0 0 1-2.25-2.25V7.75ZM10.5 21.5v-16h11.75a2.25 2.25 0 0 1 2.25 2.25v11.5a2.25 2.25 0 0 1-2.25 2.25H10.5Z"/></svg>
